frontend/src/images/face-uninstall.svg

<svg xmlns="http://www.w3.org/2000/svg" xmlns:xlink="http://www.w3.org/1999/xlink" width="65" height="59" viewBox="0 0 65 59">
  <defs>
    <polygon id="uninstallicon-a" points="0 0 0 14.325 9.028 14.325 9.028 0 0 0"/>
  </defs>
  <g fill="none" fill-rule="evenodd">
    <path fill="#FFD469" d="M61.9422917,29.5449174 C61.9422917,45.6803168 48.7563194,58.757314 32.4864583,58.757314 C16.2193056,58.757314 3.030625,45.6803168 3.030625,29.5449174 C3.030625,13.4122039 16.2193056,0.332520661 32.4864583,0.332520661 C48.7563194,0.332520661 61.9422917,13.4122039 61.9422917,29.5449174"/>
    <path fill="#FFB636" d="M53.8208125,9.41685262 C56.6663681,13.9892355 58.3112292,19.3745661 58.3112292,25.1439876 C58.3112292,41.7180923 44.7614375,55.1567975 28.0474097,55.1567975 C22.2326181,55.1567975 16.8006042,53.5264256 12.1892153,50.7052824 C17.4713681,55.692197 24.6168542,58.7568664 32.4863681,58.7568664 C48.7553264,58.7568664 61.9422014,45.6798691 61.9422014,29.545365 C61.9422014,21.7399931 58.8519931,14.6535606 53.8208125,9.41685262"/>
    <path fill="#FFD469" d="M0.0208541667,34.2767562 C0.0208541667,32.3598829 1.58807639,30.8056129 3.52092361,30.8056129 L13.7286319,30.8056129 C15.6605764,30.8056129 17.2277986,32.3598829 17.2277986,34.2767562 C17.2277986,36.1936295 15.6605764,37.7478994 13.7286319,37.7478994 L3.52092361,37.7478994 C1.58807639,37.7478994 0.0208541667,36.1936295 0.0208541667,34.2767562"/>
    <path fill="#FFB636" d="M57.8559583,34.2767562 C57.8559583,32.3598829 57.4433889,30.8056129 59.3771389,30.8056129 L61.452625,30.8056129 C63.3854722,30.8056129 64.9526944,32.3598829 64.9526944,34.2767562 C64.9526944,36.1936295 63.3854722,37.7478994 61.452625,37.7478994 L58.6801944,37.7478994 C56.7473472,37.7478994 57.8559583,36.1936295 57.8559583,34.2767562"/>
    <path stroke="#F2A74E" stroke-linecap="round" stroke-linejoin="round" stroke-width="2.275" d="M19.5910903 16.5955923C18.2260903 19.3030303 14.7558125 20.2252066 12.2117847 18.5563361M52.0672569 18.5566942C49.5214236 20.2246694 46.0493403 19.3015978 44.6879514 16.5959504"/>
    <path fill="#2B3B47" d="M17.8807778 21.6553857C19.667375 21.6553857 21.1154306 23.0914738 21.1154306 24.8633058L21.1154306 32.0553857C21.1154306 33.8272176 19.667375 35.2633058 17.8807778 35.2633058 16.0941806 35.2633058 14.646125 33.8272176 14.646125 32.0553857L14.646125 24.8633058C14.646125 23.0914738 16.0941806 21.6553857 17.8807778 21.6553857M47.2033611 21.6553857C48.9899583 21.6553857 50.4380139 23.0914738 50.4380139 24.8633058L50.4380139 32.0553857C50.4380139 33.8272176 48.9899583 35.2633058 47.2033611 35.2633058 45.4167639 35.2633058 43.9687083 33.8272176 43.9687083 32.0553857L43.9687083 24.8633058C43.9687083 23.0914738 45.4167639 21.6553857 47.2033611 21.6553857M38.2875278 46.4361433C38.2875278 46.4361433 35.9520417 45.7234711 32.5548889 45.7234711 29.1595417 45.7234711 27.3855833 46.4361433 27.3855833 46.4361433 27.3855833 46.4361433 27.6789861 41.5808402 32.8365556 41.5808402 37.9950278 41.5808402 38.2875278 46.4361433 38.2875278 46.4361433"/>
    <path stroke="#2B3B47" stroke-linecap="round" stroke-linejoin="round" stroke-width="4.878" d="M38.2875278,46.4361433 C38.2875278,46.4361433 35.9520417,45.7234711 32.5548889,45.7234711 C29.1595417,45.7234711 27.3855833,46.4361433 27.3855833,46.4361433 C27.3855833,46.4361433 27.6789861,41.5808402 32.8365556,41.5808402 C37.9950278,41.5808402 38.2875278,46.4361433 38.2875278,46.4361433 Z"/>
    <g transform="translate(9.93 37.603)"/>
    <path fill="#00BEEA" d="M15.5708996,39.4121265 L18.5204896,47.1902263 C19.2300286,49.6441687 17.9079816,52.236339 15.5663513,52.9807042 C13.224721,53.7250694 10.7511892,52.3388183 10.0401341,49.8848759 C9.77633117,48.9713007 9.79300836,48.039454 10.0401341,47.1902263 L12.9897241,39.4121265 C13.2057696,38.6653781 13.9592758,38.2443391 14.671847,38.4699524 C15.1160669,38.611358 15.4427884,38.9807601 15.5708996,39.4121265"/>
  </g>
</svg>

<svg xmlns="http://www.w3.org/2000/svg" width="65" height="59" viewBox="0 0 65 59"><g fill="none" fill-rule="evenodd"><path fill="#FFD469" d="M61.942 29.545c0 16.135-13.186 29.212-29.456 29.212-16.267 0-29.455-13.077-29.455-29.212C3.03 13.412 16.219.333 32.486.333c16.27 0 29.456 13.08 29.456 29.212"/><path fill="#FFB636" d="M53.82 9.417a29.66 29.66 0 0 1 4.491 15.727c0 16.574-13.55 30.013-30.264 30.013a30.295 30.295 0 0 1-15.858-4.452 29.472 29.472 0 0 0 20.297 8.052c16.27 0 29.456-13.077 29.456-29.212 0-7.805-3.09-14.891-8.121-20.128"/><path fill="#FFD469" d="M.02 34.277c0-1.917 1.568-3.471 3.5-3.471H13.73c1.932 0 3.499 1.554 3.499 3.47 0 1.918-1.567 3.472-3.5 3.472H3.522c-1.933 0-3.5-1.554-3.5-3.471"/><path fill="#FFB636" d="M57.856 34.277c0-1.917-.413-3.471 1.521-3.471h2.076c1.932 0 3.5 1.554 3.5 3.47 0 1.918-1.568 3.472-3.5 3.472H58.68c-1.933 0-.824-1.554-.824-3.471"/><path stroke="#F2A74E" stroke-linecap="round" stroke-linejoin="round" stroke-width="2.275" d="M19.591 16.596c-1.365 2.707-4.835 3.63-7.38 1.96m39.856 0c-2.546 1.669-6.018.746-7.379-1.96"/><path fill="#2B3B47" d="M17.88 21.655c1.787 0 3.235 1.436 3.235 3.208v7.192c0 1.772-1.448 3.208-3.234 3.208-1.787 0-3.235-1.436-3.235-3.208v-7.192c0-1.772 1.448-3.208 3.235-3.208m29.322 0c1.787 0 3.235 1.436 3.235 3.208v7.192c0 1.772-1.448 3.208-3.235 3.208-1.786 0-3.234-1.436-3.234-3.208v-7.192c0-1.772 1.448-3.208 3.234-3.208m-8.915 24.781s-2.336-.713-5.733-.713c-3.395 0-5.17.713-5.17.713s.294-4.855 5.452-4.855 5.45 4.855 5.45 4.855"/><path stroke="#2B3B47" stroke-linecap="round" stroke-linejoin="round" stroke-width="4.878" d="M38.288 46.436s-2.336-.713-5.733-.713c-3.395 0-5.17.713-5.17.713s.294-4.855 5.452-4.855 5.45 4.855 5.45 4.855z"/><path fill="#00BEEA" d="M15.57 39.412l2.95 7.778c.71 2.454-.612 5.046-2.954 5.79-2.341.745-4.815-.641-5.526-3.095a4.832 4.832 0 0 1 0-2.695l2.95-7.778c.216-.747.97-1.168 1.682-.942.444.141.77.51.899.942"/></g></svg>
